img/rock-robot.svg

<svg width="42" height="52.5" xmlns="http://www.w3.org/2000/svg" version="1.1">

 <g>
  <title>Layer 1</title>
  <path fill="white" id="svg_1" d="m19.317,33.93l-0.482,0.41c-0.483,0.332 -0.556,0.984 -0.235,1.482l3.013,4.434c0.396,0.5 1.039,0.576 1.507,0.243l11.584,-8.536c0.482,-0.408 0.555,-1.075 0.233,-1.558l-3.013,-4.36c-0.322,-0.498 -0.95,-0.65 -1.432,-0.241l-0.483,0.333c0.16,1.074 0.073,2.3 -0.235,3.451c-1.184,3.783 -5.47,6.158 -9.126,4.933c-0.453,-0.106 -0.847,-0.348 -1.331,-0.591zm4.534,-4.6c1.038,-0.575 1.433,-1.967 0.878,-3.042c-0.556,-1.075 -1.829,-1.558 -2.94,-0.983c-1.039,0.575 -1.434,1.967 -0.878,3.041c0.556,1.151 1.827,1.559 2.94,0.984zm-8.175,-0.409l-6.114,-4.267l-3.656,0.741l5.397,3.693c1.433,0.908 3.013,1.15 4.519,0.5c-0.073,-0.258 -0.073,-0.425 -0.146,-0.667zm-5.558,-8.626l-1.506,1.15c-0.234,0.167 -0.63,0.167 -0.878,0l-3.407,-2.633c-0.79,1.649 -0.717,3.784 0.321,5.343l5.002,-0.984l0.483,0.166l5.396,3.692c0,-0.65 0.162,-1.316 0.322,-1.967l-5.733,-4.767zm12.461,-12.652l0.877,4.934c0.073,0.243 -0.072,0.575 -0.322,0.742l-1.433,1.074l2.545,5.585c1.038,0.166 1.99,0.65 2.853,1.316c1.183,-1.559 0.789,-3.617 0.16,-5.342l-2.223,-5.918c-0.483,-1.149 -1.346,-1.891 -2.457,-2.391zm-5.235,14.621l-3.496,-4.678l-0.878,0.576c-0.234,0.242 -0.717,0.166 -0.877,-0.167l-2.779,-3.45c-1.185,0.817 -3.174,2.057 -4.125,3.117l3.013,2.301l1.508,-1.151c0.233,-0.167 0.554,-0.167 0.788,0l5.88,4.843c0.321,-0.484 0.643,-0.893 0.966,-1.391zm2.061,-1.561l-3.495,-5.584c-0.234,-0.331 -0.161,-0.741 0.159,-0.983l0.879,-0.65l-1.74,-3.285l-4.769,3.452l2.297,2.949l0.79,-0.574c0.322,-0.243 0.716,-0.167 0.95,0.075l3.891,5.176c0.321,-0.166 0.628,-0.409 1.038,-0.576zm-3.1,-11.334l2.149,4.025c0.161,0.334 0.072,0.742 -0.234,0.909l-0.789,0.574l3.246,5.253c0.63,-0.243 1.273,-0.334 1.989,-0.334l-2.457,-5.342c-0.161,-0.334 -0.073,-0.742 0.234,-0.908l1.593,-1.226l-0.949,-5.009c-1.184,-0.166 -2.296,0.242 -3.247,0.907l-1.535,1.151zm4.767,23.73c3.101,1.074 6.435,-0.742 7.386,-3.936c0.949,-3.283 -0.79,-6.658 -3.891,-7.642c-3.1,-0.984 -6.434,0.743 -7.385,4.026c-0.951,3.117 0.702,6.567 3.89,7.552zm3.408,-2.542c-1.742,0.983 -3.89,0.242 -4.841,-1.485c-0.877,-1.8 -0.234,-4.1 1.506,-5.008c1.742,-0.983 3.891,-0.243 4.841,1.559c0.878,1.816 0.235,4.041 -1.506,4.934z"/>
 </g>
</svg>

<?xml version="1.0" encoding="utf-8"?>
<svg version="1.1" x="0px" y="0px" viewBox="0 0 42 52.5" style="enable-background:new 0 0 42 42;" xmlns="http://www.w3.org/2000/svg">
  <style type="text/css">
	.st0{fill-rule:evenodd;clip-rule:evenodd;}
</style>
  <path d="M 19.317 33.93 L 18.835 34.34 C 18.352 34.672 18.279 35.324 18.6 35.822 L 21.613 40.256 C 22.009 40.756 22.652 40.832 23.12 40.499 L 34.704 31.963 C 35.186 31.555 35.259 30.888 34.937 30.405 L 31.924 26.045 C 31.602 25.547 30.974 25.395 30.492 25.804 L 30.009 26.137 C 30.169 27.211 30.082 28.437 29.774 29.588 C 28.59 33.371 24.304 35.746 20.648 34.521 C 20.195 34.415 19.801 34.173 19.317 33.93 Z M 23.851 29.33 C 24.889 28.755 25.284 27.363 24.729 26.288 C 24.173 25.213 22.9 24.73 21.789 25.305 C 20.75 25.88 20.355 27.272 20.911 28.346 C 21.467 29.497 22.738 29.905 23.851 29.33 Z M 15.676 28.921 L 9.562 24.654 L 5.906 25.395 L 11.303 29.088 C 12.736 29.996 14.316 30.238 15.822 29.588 C 15.749 29.33 15.749 29.163 15.676 28.921 Z M 10.118 20.295 L 8.612 21.445 C 8.378 21.612 7.982 21.612 7.734 21.445 L 4.327 18.812 C 3.537 20.461 3.61 22.596 4.648 24.155 L 9.65 23.171 L 10.133 23.337 L 15.529 27.029 C 15.529 26.379 15.691 25.713 15.851 25.062 L 10.118 20.295 Z M 22.579 7.643 L 23.456 12.577 C 23.529 12.82 23.384 13.152 23.134 13.319 L 21.701 14.393 L 24.246 19.978 C 25.284 20.144 26.236 20.628 27.099 21.294 C 28.282 19.735 27.888 17.677 27.259 15.952 L 25.036 10.034 C 24.553 8.885 23.69 8.143 22.579 7.643 Z M 17.344 22.264 L 13.848 17.586 L 12.97 18.162 C 12.736 18.404 12.253 18.328 12.093 17.995 L 9.314 14.545 C 8.129 15.362 6.14 16.602 5.189 17.662 L 8.202 19.963 L 9.71 18.812 C 9.943 18.645 10.264 18.645 10.498 18.812 L 16.378 23.655 C 16.699 23.171 17.021 22.762 17.344 22.264 Z M 19.405 20.703 L 15.91 15.119 C 15.676 14.788 15.749 14.378 16.069 14.136 L 16.948 13.486 L 15.208 10.201 L 10.439 13.653 L 12.736 16.602 L 13.526 16.028 C 13.848 15.785 14.242 15.861 14.476 16.103 L 18.367 21.279 C 18.688 21.113 18.995 20.87 19.405 20.703 Z M 16.305 9.369 L 18.454 13.394 C 18.615 13.728 18.526 14.136 18.22 14.303 L 17.431 14.877 L 20.677 20.13 C 21.307 19.887 21.95 19.796 22.666 19.796 L 20.209 14.454 C 20.048 14.12 20.136 13.712 20.443 13.546 L 22.036 12.32 L 21.087 7.311 C 19.903 7.145 18.791 7.553 17.84 8.218 L 16.305 9.369 Z M 21.072 33.099 C 24.173 34.173 27.507 32.357 28.458 29.163 C 29.407 25.88 27.668 22.505 24.567 21.521 C 21.467 20.537 18.133 22.264 17.182 25.547 C 16.231 28.664 17.884 32.114 21.072 33.099 Z M 24.48 30.557 C 22.738 31.54 20.59 30.799 19.639 29.072 C 18.762 27.272 19.405 24.972 21.145 24.064 C 22.887 23.081 25.036 23.821 25.986 25.623 C 26.864 27.439 26.221 29.664 24.48 30.557 Z" style=""/>
</svg>
